src/16/actions/application-rss+xml.svg

<svg xmlns="http://www.w3.org/2000/svg" width="16" height="16" viewBox="0 0 16 16">
 <defs>
  <style id="current-color-scheme" type="text/css">
   .ColorScheme-Text { color:#5d656b; } .ColorScheme-Highlight { color:#5294e2; }
  </style>
 </defs>
 <path style="fill:currentColor" class="ColorScheme-Text" d="M 1 0.99804688 L 1 3.1796875 C 7.5264 3.1796875 12.818359 8.4690468 12.818359 14.998047 L 14.998047 14.998047 C 14.998047 7.2654045 8.7303937 0.9991127 1 0.99804688 z M 1 5.359375 L 1 7.5429688 C 5.1174 7.5429688 8.4550781 10.880347 8.4550781 14.998047 L 10.636719 14.998047 C 10.636719 9.6762468 6.3216 5.359375 1 5.359375 z M 3.0898438 10.820312 C 1.9352436 10.820312 1 11.756879 1 12.912109 C 1 14.065009 1.9352037 15.003906 3.0898438 15.003906 C 4.2444836 15.003906 5.1816406 14.065019 5.1816406 12.912109 C 5.1816406 11.756809 4.2444836 10.820313 3.0898438 10.820312 z"/>
</svg>

<svg xmlns="http://www.w3.org/2000/svg" width="16" height="16"><defs><style id="current-color-scheme" type="text/css"></style></defs><path d="M1 .998V3.18c6.526 0 11.818 5.289 11.818 11.818h2.18C14.998 7.265 8.73.999 1 .998zm0 4.361v2.184a7.455 7.455 0 0 1 7.455 7.455h2.182c0-5.322-4.315-9.639-9.637-9.639zm2.09 5.461a2.092 2.092 0 1 0 2.092 2.092A2.092 2.092 0 0 0 3.09 10.82z" fill="currentColor" color="#5d656b"/></svg>
